dhis-2/dhis-support/dhis-support-system/src/main/resources/SVGs/pregnant_0812w_outline.svg

<svg width="48" height="48" viewBox="0 0 48 48" fill="none" xmlns="http://www.w3.org/2000/svg">
<path fill-rule="evenodd" clip-rule="evenodd" d="M23.9997 4.00977C20.2143 4.00977 16.584 5.5135 13.9073 8.19018C11.2306 10.8669 9.72689 14.4972 9.72689 18.2826C9.72676 20.157 10.0958 22.0131 10.8131 23.7449C11.5303 25.4766 12.5816 27.0502 13.9069 28.3756C15.2323 29.7011 16.8058 30.7525 18.5375 31.4699C20.2692 32.1872 22.1253 32.5564 23.9997 32.5564C25.8741 32.5564 27.7302 32.1872 29.4619 31.4699C31.1936 30.7525 32.7671 29.7011 34.0925 28.3756C35.4178 27.0502 36.4691 25.4766 37.1864 23.7449C37.9036 22.0131 38.2727 20.157 38.2725 18.2826C38.2725 14.4972 36.7688 10.8669 34.0921 8.19018C31.4154 5.5135 27.7851 4.00977 23.9997 4.00977ZM23.9957 4.51756C25.8021 4.5173 27.5908 4.87299 29.2597 5.56431C30.9286 6.25564 32.4451 7.26907 33.7224 8.54672C34.9998 9.82437 36.0131 11.3412 36.7044 13.0106C37.3957 14.6801 37.7515 16.4694 37.7515 18.2764C37.7517 20.0835 37.3959 21.8729 36.7047 23.5424C36.0134 25.212 35.0002 26.7289 33.7228 28.0067C32.4454 29.2845 30.9289 30.298 29.2599 30.9894C27.5909 31.6808 25.8021 32.0365 23.9957 32.0362C22.1894 32.0362 20.4009 31.6803 18.7321 30.9888C17.0634 30.2973 15.5471 29.2837 14.2699 28.006C12.9928 26.7283 11.9797 25.2114 11.2885 23.542C10.5974 21.8726 10.2417 20.0833 10.2419 18.2764C10.2419 14.6273 11.6909 11.1277 14.2703 8.54743C16.8496 5.96715 20.348 4.51756 23.9957 4.51756ZM22.9117 6.66983C22.7257 6.67113 22.5337 6.77423 22.4467 7.02333C22.1307 7.72532 21.5867 8.21901 21.3477 9.2128C21.0437 10.6449 23.5007 10.7669 24.2677 10.7639C26.4807 10.8449 27.2777 12.2229 25.0037 12.4279C23.1167 12.6049 21.1757 12.6519 20.7947 16.5348C20.7457 17.1028 21.0077 18.1108 21.4647 19.3928C21.6157 20.2328 21.3657 21.2008 20.8627 22.2497C20.6068 22.2197 20.4178 22.1277 20.3708 21.9157C20.4148 21.0108 20.5978 20.2458 20.2378 18.9358C19.8838 17.6648 19.0178 17.0598 18.1388 16.9038C16.3758 16.5378 14.8118 16.2068 13.3998 16.6758C11.9119 17.2338 12.3879 19.4388 13.6678 19.4668L15.2358 19.5098C16.3228 19.5318 16.9118 20.0098 16.3478 21.5367L15.5818 23.7577C14.9558 25.6687 17.0628 27.7587 19.8238 27.9997C22.6157 27.9347 24.2287 26.6877 26.4037 26.0077C28.4887 24.8537 28.1027 24.0347 28.0957 23.3007C27.7487 22.2827 27.7017 21.9127 26.9467 20.7598C26.6517 20.4478 26.5147 20.3608 26.1247 20.1018C25.1757 19.0508 26.7137 18.3838 27.8727 17.0098C28.4747 16.1558 27.4547 15.1538 26.2707 15.5018C25.2717 15.8278 24.7477 16.4368 23.7297 17.4898C23.1497 18.1288 22.3647 19.6228 23.4407 20.8828C23.7417 21.4617 23.3357 21.7367 22.3087 22.0657C21.9717 22.1497 21.7297 22.1667 21.4647 22.2007C21.9987 21.3107 22.1307 20.4018 22.0117 19.4818C21.7837 18.5148 21.3877 17.5888 21.3707 16.5678C21.6977 12.6589 24.0447 13.1969 25.9017 12.8959C26.7837 12.8659 28.6766 10.7699 24.6187 10.0329C23.3457 9.80499 22.0877 9.89859 22.3027 9.0604C22.4857 8.33071 22.9807 7.87322 23.3007 7.30852C23.5177 6.94903 23.2217 6.66773 22.9117 6.66983ZM31.8296 16.5898V16.5918C30.9296 16.5918 30.0316 16.9358 29.3456 17.6228C27.9737 18.9958 27.9717 21.2258 29.3456 22.5977C30.7186 23.9697 32.9476 23.9647 34.3196 22.5897C35.6916 21.2158 35.6876 18.9868 34.3136 17.6148C33.6276 16.9288 32.7296 16.5888 31.8296 16.5898ZM7.86691 35.0956C7.03882 35.0956 6.40453 35.3696 5.96263 35.9196C5.52424 36.4696 5.30444 37.2766 5.30444 38.3375V39.7355C5.31484 40.7555 5.53984 41.5375 5.97823 42.0835C6.41663 42.6295 7.04852 42.9035 7.87671 42.9035C8.7151 42.9035 9.35189 42.6245 9.78679 42.0675C10.2217 41.5115 10.4387 40.7085 10.4387 39.6575V38.2595C10.4287 37.2395 10.2057 36.4586 9.76729 35.9156C9.32889 35.3696 8.695 35.0956 7.86691 35.0956ZM14.0096 35.0956C13.2686 35.0956 12.6827 35.2896 12.2517 35.6756C11.8197 36.0586 11.6037 36.5736 11.6037 37.2206C11.6037 37.5895 11.6937 37.9155 11.8747 38.2005C12.0587 38.4855 12.3127 38.7135 12.6367 38.8845C12.2707 39.0585 11.9807 39.3015 11.7657 39.6145C11.5497 39.9275 11.4407 40.2955 11.4407 40.7165C11.4407 41.3875 11.6737 41.9195 12.1367 42.3115C12.5987 42.7055 13.2256 42.9035 14.0156 42.9035C14.8046 42.9035 15.4286 42.7095 15.8886 42.3195C16.3476 41.9265 16.5776 41.3915 16.5776 40.7165C16.5776 40.2955 16.4696 39.9305 16.2536 39.6205C16.0376 39.3075 15.7456 39.0615 15.3766 38.8845C15.7006 38.7135 15.9556 38.4855 16.1406 38.2005C16.3246 37.9155 16.4156 37.5895 16.4156 37.2206C16.4156 36.5666 16.1986 36.0486 15.7636 35.6696C15.3316 35.2866 14.7466 35.0956 14.0096 35.0956ZM30.3824 35.0956C29.8704 35.0956 29.4124 35.2066 29.0094 35.4256C28.6055 35.6416 28.2925 35.9396 28.0695 36.3216C27.8505 36.7046 27.7415 37.1266 27.7415 37.5895H29.2554C29.2554 37.2066 29.3534 36.9006 29.5484 36.6676C29.7464 36.4306 30.0134 36.3116 30.3544 36.3116C30.6714 36.3116 30.9164 36.4086 31.0874 36.6036C31.2574 36.7946 31.3434 37.0606 31.3434 37.3975C31.3434 37.6445 31.2604 37.9045 31.0974 38.1795C30.9374 38.4545 30.6884 38.7765 30.3514 39.1445L27.8945 41.7655V42.7985H33.1014V41.5835H29.8354L31.5604 39.7615C32.0344 39.2425 32.3684 38.7895 32.5614 38.3995C32.7564 38.0105 32.8544 37.6275 32.8544 37.2515C32.8544 36.5656 32.6394 36.0356 32.2044 35.6596C31.7734 35.2836 31.1654 35.0956 30.3824 35.0956ZM25.2575 35.1886L22.1105 36.3156V37.5425L23.9115 36.9856V42.7985H25.4195V35.1886H25.2575ZM33.6964 35.2006L35.3824 42.7985H36.9583L38.1963 37.7165L39.4333 42.7985H41.0093L42.6923 35.2006H41.1343L40.1083 40.6065L38.8643 35.2006H37.5383L36.2864 40.5975L35.2574 35.2006H33.6964ZM14.0096 36.3116C14.2946 36.3116 14.5166 36.4026 14.6736 36.5836C14.8296 36.7606 14.9076 36.9966 14.9076 37.2925C14.9076 37.5955 14.8296 37.8385 14.6736 38.0225C14.5206 38.2075 14.3006 38.3005 14.0156 38.3005C13.7296 38.3005 13.5096 38.2075 13.3536 38.0225C13.1966 37.8385 13.1166 37.5955 13.1166 37.2925C13.1166 36.9866 13.1966 36.7456 13.3536 36.5716C13.5096 36.3976 13.7276 36.3126 14.0096 36.3116ZM7.86691 36.3156C8.23221 36.3156 8.4991 36.4606 8.6696 36.7496C8.8436 37.0346 8.9313 37.4925 8.9313 38.1225V39.9295C8.9244 40.5245 8.839 40.9645 8.6755 41.2535C8.5119 41.5425 8.24541 41.6875 7.87671 41.6875C7.50432 41.6875 7.23272 41.5375 7.06222 41.2375C6.89522 40.9355 6.81222 40.4745 6.81222 39.8545V38.0075C6.82262 37.4265 6.91082 37.0016 7.07782 36.7296C7.24832 36.4556 7.51202 36.3156 7.86691 36.3156ZM17.6576 38.9375V40.1535H20.5976V38.9375H17.6576ZM14.0056 39.5175C14.3286 39.5175 14.5856 39.6155 14.7766 39.8135C14.9686 40.0125 15.0636 40.2765 15.0636 40.6065C15.0636 40.9445 14.9706 41.2085 14.7826 41.3995C14.5986 41.5915 14.3426 41.6875 14.0156 41.6875C13.6816 41.6875 13.4196 41.5885 13.2316 41.3905C13.0446 41.1915 12.9506 40.9305 12.9506 40.6065C12.9506 40.2725 13.0466 40.0085 13.2376 39.8135C13.4296 39.6155 13.6856 39.5175 14.0056 39.5175Z" fill="#333333"/>
</svg>

<?xml version="1.0" encoding="UTF-8" standalone="no"?>
<!-- Created with Inkscape (http://www.inkscape.org/) -->
<svg id="svg8" xmlns:rdf="http://www.w3.org/1999/02/22-rdf-syntax-ns#" xmlns="http://www.w3.org/2000/svg" height="48" viewBox="0 0 12.7 12.7" width="48" version="1.1" xmlns:cc="http://creativecommons.org/ns#" xmlns:dc="http://purl.org/dc/elements/1.1/">
 <title id="title4753">UIO-icon</title>
 <metadata id="metadata5">
  <rdf:RDF>
   <cc:Work rdf:about="">
    <dc:format>image/svg+xml</dc:format>
    <dc:type rdf:resource="http://purl.org/dc/dcmitype/StillImage"/>
    <dc:title>UIO-icon</dc:title>
    <dc:creator>
     <cc:Agent>
      <dc:title>Joaquín Urbano</dc:title>
     </cc:Agent>
    </dc:creator>
    <dc:rights>
     <cc:Agent>
      <dc:title>GPL</dc:title>
     </cc:Agent>
    </dc:rights>
   </cc:Work>
  </rdf:RDF>
 </metadata>
 <path id="path837" d="m24 4.0098a14.273 14.273 0 0 0 -14.273 14.273 14.273 14.273 0 0 0 14.273 14.274 14.273 14.273 0 0 0 14.273 -14.274 14.273 14.273 0 0 0 -14.273 -14.273zm-0.004 0.5078a13.754 13.759 0 0 1 13.756 13.759 13.754 13.759 0 0 1 -13.756 13.76 13.754 13.759 0 0 1 -13.754 -13.76 13.754 13.759 0 0 1 13.754 -13.759zm-1.084 2.1523c-0.186 0.0013-0.378 0.1044-0.465 0.3535-0.316 0.702-0.86 1.1957-1.099 2.1895-0.304 1.4321 2.153 1.5541 2.92 1.5511 2.213 0.081 3.01 1.459 0.736 1.664-1.887 0.177-3.828 0.224-4.209 4.107-0.049 0.568 0.213 1.576 0.67 2.858 0.151 0.84-0.099 1.808-0.602 2.857-0.256-0.03-0.445-0.122-0.492-0.334 0.044-0.905 0.227-1.67-0.133-2.98-0.354-1.271-1.22-1.876-2.099-2.032-1.763-0.366-3.327-0.697-4.739-0.228-1.488 0.558-1.012 2.763 0.268 2.791l1.568 0.043c1.087 0.022 1.676 0.5 1.112 2.027l-0.766 2.221c-0.626 1.911 1.481 4.001 4.242 4.242 2.792-0.065 4.405-1.312 6.58-1.992 2.085-1.154 1.699-1.973 1.692-2.707-0.347-1.018-0.394-1.388-1.149-2.541-0.295-0.312-0.432-0.399-0.822-0.658-0.949-1.051 0.589-1.718 1.748-3.092 0.602-0.854-0.418-1.856-1.602-1.508-0.999 0.326-1.523 0.935-2.541 1.988-0.58 0.639-1.365 2.133-0.289 3.393 0.301 0.579-0.105 0.854-1.132 1.183-0.337 0.084-0.579 0.101-0.844 0.135 0.534-0.89 0.666-1.799 0.547-2.719-0.228-0.967-0.624-1.893-0.641-2.914 0.327-3.909 2.674-3.371 4.531-3.672 0.882-0.03 2.775-2.126-1.283-2.863-1.273-0.2279-2.531-0.1343-2.316-0.9725 0.183-0.7297 0.678-1.1872 0.998-1.7519 0.217-0.3595-0.079-0.6408-0.389-0.6387zm8.918 9.9201v0.002c-0.9 0-1.798 0.344-2.484 1.031-1.372 1.373-1.374 3.603 0 4.975 1.373 1.372 3.602 1.367 4.974-0.008 1.372-1.374 1.368-3.603-0.006-4.975-0.686-0.686-1.584-1.026-2.484-1.025zm-23.963 18.506c-0.8281 0-1.4624 0.274-1.9043 0.824-0.4384 0.55-0.6582 1.357-0.6582 2.418v1.398c0.0104 1.02 0.2354 1.802 0.6738 2.348s1.0703 0.82 1.8985 0.82c0.8384 0 1.4752-0.279 1.9101-0.836 0.4349-0.556 0.6519-1.359 0.6519-2.41v-1.398c-0.01-1.02-0.233-1.801-0.6714-2.344-0.4384-0.546-1.0723-0.82-1.9004-0.82zm6.1428 0c-0.741 0-1.327 0.194-1.758 0.58-0.432 0.383-0.648 0.898-0.648 1.545 0 0.369 0.09 0.695 0.271 0.98 0.184 0.285 0.438 0.513 0.762 0.684-0.366 0.174-0.656 0.417-0.871 0.73-0.216 0.313-0.325 0.681-0.325 1.102 0 0.671 0.233 1.203 0.696 1.595 0.462 0.394 1.089 0.592 1.879 0.592 0.789 0 1.413-0.194 1.873-0.584 0.459-0.393 0.689-0.928 0.689-1.603 0-0.421-0.108-0.786-0.324-1.096-0.216-0.313-0.508-0.559-0.877-0.736 0.324-0.171 0.579-0.399 0.764-0.684 0.184-0.285 0.275-0.611 0.275-0.98 0-0.654-0.217-1.172-0.652-1.551-0.432-0.383-1.017-0.574-1.754-0.574zm16.373 0c-0.512 0-0.97 0.111-1.373 0.33-0.404 0.216-0.717 0.514-0.94 0.896-0.219 0.383-0.328 0.805-0.328 1.268h1.514c0-0.383 0.098-0.689 0.293-0.922 0.198-0.237 0.465-0.356 0.806-0.356 0.317 0 0.562 0.097 0.733 0.292 0.17 0.191 0.256 0.457 0.256 0.794 0 0.247-0.083 0.507-0.246 0.782-0.16 0.275-0.409 0.597-0.746 0.965l-2.457 2.621v1.033h5.207v-1.215h-3.266l1.725-1.822c0.474-0.519 0.808-0.972 1.001-1.362 0.195-0.389 0.293-0.772 0.293-1.148 0-0.686-0.215-1.216-0.65-1.592-0.431-0.376-1.039-0.564-1.822-0.564zm-5.125 0.093l-3.147 1.127v1.227l1.801-0.557v5.813h1.508v-7.61h-0.162zm8.439 0.012l1.686 7.598h1.576l1.238-5.082 1.237 5.082h1.576l1.683-7.598h-1.558l-1.026 5.406-1.244-5.406h-1.326l-1.252 5.397-1.029-5.397h-1.561zm-19.687 1.111c0.285 0 0.507 0.091 0.664 0.272 0.156 0.177 0.234 0.413 0.234 0.709 0 0.303-0.078 0.546-0.234 0.73-0.153 0.185-0.373 0.278-0.658 0.278-0.286 0-0.506-0.093-0.662-0.278-0.157-0.184-0.237-0.427-0.237-0.73 0-0.306 0.08-0.547 0.237-0.721 0.156-0.174 0.374-0.259 0.656-0.26zm-6.1428 0.004c0.3653 0 0.6322 0.145 0.8027 0.434 0.174 0.285 0.2617 0.743 0.2617 1.373v1.807c-0.0069 0.595-0.0923 1.035-0.2558 1.324-0.1636 0.289-0.4301 0.434-0.7988 0.434-0.3724 0-0.644-0.15-0.8145-0.45-0.167-0.302-0.25-0.763-0.25-1.383v-1.847c0.0104-0.581 0.0986-1.006 0.2656-1.278 0.1705-0.274 0.4342-0.414 0.7891-0.414zm9.7908 2.622v1.216h2.94v-1.216h-2.94zm-3.652 0.58c0.323 0 0.58 0.098 0.771 0.296 0.192 0.199 0.287 0.463 0.287 0.793 0 0.338-0.093 0.602-0.281 0.793-0.184 0.192-0.44 0.288-0.767 0.288-0.334 0-0.596-0.099-0.784-0.297-0.187-0.199-0.281-0.46-0.281-0.784 0-0.334 0.096-0.598 0.287-0.793 0.192-0.198 0.448-0.296 0.768-0.296z" fill-rule="evenodd" transform="scale(.26458)" stroke-width=".99999" fill="#333"/>
</svg>
